src/assets/icons/arrows,fancy,down-right.svg

<svg width="48" height="48" viewBox="0 0 48 48" fill="none" xmlns="http://www.w3.org/2000/svg">
<g clip-path="url(#clip0_37:559)">
<path opacity="0.8" d="M7.715 14.8078C6.93395 14.0267 6.93395 12.7604 7.71499 11.9793L11.9576 7.7367C12.7387 6.95565 14.005 6.95565 14.7861 7.7367L31.7566 24.7073C32.5377 25.4883 32.5377 26.7546 31.7566 27.5357L27.514 31.7783C26.7329 32.5594 25.4666 32.5594 24.6856 31.7783L7.715 14.8078Z" fill="black"/>
<path d="M14.6646 38.1421L36.1204 38.1421C37.225 38.1421 38.1204 37.2467 38.1204 36.1421L38.1204 14.6863C38.1204 13.5817 37.225 12.6863 36.1204 12.6863L30.2209 12.6863C29.1164 12.6863 28.2209 13.5817 28.2209 14.6863L28.2209 26.2426C28.2209 27.3472 27.3255 28.2426 26.2209 28.2426L14.6646 28.2426C13.56 28.2426 12.6646 29.1381 12.6646 30.2426V36.1421C12.6646 37.2467 13.56 38.1421 14.6646 38.1421Z" fill="black"/>
</g>
<defs>
<clipPath id="clip0_37:559">
<rect width="48" height="48" fill="white"/>
</clipPath>
</defs>
</svg>

<svg xmlns="http://www.w3.org/2000/svg" width="48" height="48" fill="none" viewBox="0 0 48 48">
  <g clip-path="url(#clip0_37:559)">
    <path fill="#000" d="M7.715 14.808a2 2 0 010-2.829l4.243-4.242a2 2 0 012.828 0l16.97 16.97a2 2 0 010 2.829l-4.242 4.242a2 2 0 01-2.828 0L7.715 14.808z" opacity=".8"/>
    <path fill="#000" d="M14.665 38.142H36.12a2 2 0 002-2V14.686a2 2 0 00-2-2h-5.9a2 2 0 00-2 2v11.557a2 2 0 01-2 2H14.666a2 2 0 00-2 2v5.9a2 2 0 002 2z"/>
  </g>
  <defs>
    <clipPath id="clip0_37:559">
      <path fill="#fff" d="M0 0h48v48H0z"/>
    </clipPath>
  </defs>
</svg>
